X:372
T:Madeleine et la mort
R:branle coup
C:trad.
A:Alsace
O:France
M:4/4
L:1/8
Q:1/4=110
K:C
D|GDGA B2A2|G2 G>BB>A AG|G2 BG A2 Bc|B2AAGDBG|A2 BcB2A2|G6-GD||
